!!!id: EG094b
!!!page: 93-95
!!!COM: Anonymous
!!!LYR: Anonymous
!!!PTL@@FR: Chansons Populaires du Canada
!!!OTL@@FR: Sur le pont d'Avignon
!!!PUB: G. E. Desbarats
!!!YEM:
!!!PDT: 1865
!!!SMA:
!!!OMD:
!!!AGN-Laforte:
!!!AGN-type:
!!!AGN-rime:
**kern
*clefG2
*k[]
*C:
*M2/4
*
*
8ee
=1
8ee
8cc
8dd
8ee
=2
*M2/8
8dd
8ee
!!LO:PB:g=original
=3
*M2/4
8ee
8cc
8dd
8ee
=4
4dd
8r
8dd
=5
8.dd
16cc
8a
8cc
!!LO:PB:g=original
=6
8.dd
16cc
8dd
8ee
=7
(4dd
8cc)
8cc
=8
8.dd
16cc
8a
8cc
!!LO:PB:g=original
=9
8.dd
16cc
8dd
8ee
=10
4cc
8r
==||
8r
==||
*
*
==|
!!!RNB: first eighth note in m.1 and last in m.2 have a second eighth note in upper voice, on gg
*-
